X:381
T:38. MORRIS SET #2
T:Sheriff's Ride
O:Morris tune, England
M:4/4
K:Am
|:ed|\
"Am"c2 A2 A2 Bc|"G"dedc "Am"A3e|a2 a2 a2 ba|"G"g2 ee "Em"e2 ef|\
"C"g2 g2 agfe|"Dm"fe d2 d4|"Am"c3 d "E7"edcB|[1 "Am"c2 A2 A2:|[2 "Am"c2 A2 A4|\
|:"Am"a2 a2 a2 ba|"G"g2 "Em"e2 e4|"Am"a2 ab "C"c'2 ba|"G"g2 e2 "Em"e2 ef|\
"C"g2 g2 agfe|"Dm"fe d2 d4|"Am"c3 d "E7"edcB|"Am"c2 A2 A2:|
